X: 9
T:Doublestop Studies - Key of A
C:Mike Stangeland
N:10/31/00
L:1/8
Q:1/4=220
M:4/4
K:A
z8 | "A major doublest"z2 F2 A2 B2 | [ec][ec] [ec][ec] [ec][ec] [e2c2] | [ae][ae] [ae][ae] [ae][ae] [a2e2] | 
[c'a][c'a] [c'a][c'a] [c'a][c'a] [c'2a2] | [e'c'][e'c'] [e'c'][e'c'] [e'c'][e'c'] [e'2c'2] | 
[AE][AE] [AE][AE] [AE][AE] [A2E2] | [cA][cA] [cA][cA] [cA][cA] [c2A2] | [ec][ec] [ec][ec] [ec][ec] [e2c2] | 
[ae][ae] [ae][ae] [ae][ae] [a2e2] | [EC][EC] [EC][EC] [EC][EC] [E2C2] | [AE][AE] [AE][AE] [AE][AE] [A2E2] | 
[cA][cA] [cA][cA] [cA][cA] [c2A2] | [eA][eA] [eA][eA] [eA][eA] [e2A2] | [ac][ac] [ac][ac] [ac][ac] [a2c2] | 
[c'e][c'e] [c'e][c'e] [c'e][c'e] [c'2e2] | [e'a][e'a] [e'a][e'a] [e'a][e'a] [e'2a2] | 
[cE][cE] [cE][cE] [cE][cE] [c2E2] | [eA][eA] [eA][eA] [eA][eA] [e2A2] | [ac][ac] [ac][ac] [ac][ac] [a2c2] | 
[c'e][c'e] [c'e][c'e] [c'e][c'e] [c'2e2] | [EA,][EA,] [EA,][EA,] [EA,][EA,] [E2A,2] | 
[AC][AC] [AC][AC] [AC][AC] [A2C2] | [cE][cE] [cE][cE] [cE][cE] [c2E2] | [eA][eA] [eA][eA] [eA][eA] [e2A2] | 
z8 | z2 A2 B2 c2 | [fd][fd] [fd][fd] [fd][fd] [f2d2] | [af][af] [af][af] [af][af] [a2f2] | 
[d'a][d'a] [d'a][d'a] [d'a][d'a] [d'2a2] | [f'd'][f'd'] [f'd'][f'd'] [f'd'][f'd'] [f'2d'2] | 
[AF][AF] [AF][AF] [AF][AF] [A2F2] | [dA][dA] [dA][dA] [dA][dA] [d2A2] | [fd][fd] [fd][fd] [fd][fd] [f2d2] | 
[af][af] [af][af] [af][af] [a2f2] | [DA,][DA,] [DA,][DA,] [DA,][DA,] [D2A,2] | 
[FD][FD] [FD][FD] [FD][FD] [F2D2] | [AF][AF] [AF][AF] [AF][AF] [A2F2] | [dA][dA] [dA][dA] [dA][dA] [d2A2] | 
[fA][fA] [fA][fA] [fA][fA] [f2A2] | [ad][ad] [ad][ad] [ad][ad] [a2d2] | [d'f][d'f] [d'f][d'f] [d'f][d'f] [d'2f2] | 
[f'a][f'a] [f'a][f'a] [f'a][f'a] [f'2a2] | [AD][AD] [AD][AD] [AD][AD] [A2D2] | 
[dF][dF] [dF][dF] [dF][dF] [d2F2] | [fA][fA] [fA][fA] [fA][fA] [f2A2] | [ad][ad] [ad][ad] [ad][ad] [a2d2] | 
[FA,][FA,] [FA,][FA,] [FA,][FA,] [F2A,2] | [AD][AD] [AD][AD] [AD][AD] [A2D2] | 
[dF][dF] [dF][dF] [dF][dF] [d2F2] | [fA][fA] [fA][fA] [fA][fA] [f2A2] | z8 | "E major doublest"z2 E2 G2 A2 | 
[eB][eB] [eB][eB] [eB][eB] [e2B2] | [ge][ge] [ge][ge] [ge][ge] [g2e2] | [bg][bg] [bg][bg] [bg][bg] [b2g2] | 
[e'b][e'b] [e'b][e'b] [e'b][e'b] [e'2b2] | [BG][BG] [BG][BG] [BG][BG] [B2G2] | 
[eB][eB] [eB][eB] [eB][eB] [e2B2] | [ge][ge] [ge][ge] [ge][ge] [g2e2] | [EB,][EB,] [EB,][EB,] [EB,][EB,] [E2B,2] | 
[GE][GE] [GE][GE] [GE][GE] [G2E2] | [BG][BG] [BG][BG] [BG][BG] [B2G2] | [eB][eB] [eB][eB] [eB][eB] [e2B2] | 
[gB][gB] [gB][gB] [gB][gB] [g2B2] | [be][be] [be][be] [be][be] [b2e2] | [e'g][e'g] [e'g][e'g] [e'g][e'g] [e'2g2] | 
[g'b][g'b] [g'b][g'b] [g'b][g'b] [g'2b2] | [BE][BE] [BE][BE] [BE][BE] [B2E2] | 
[eG][eG] [eG][eG] [eG][eG] [e2G2] | [gB][gB] [gB][gB] [gB][gB] [g2B2] | [be][be] [be][be] [be][be] [b2e2] | 
[EG,][EG,] [EG,][EG,] [EG,][EG,] [E2G,2] | [GB,][GB,] [GB,][GB,] [GB,][GB,] [G2B,2] | 
[BE][BE] [BE][BE] [BE][BE] [B2E2] | [eG][eG] [eG][eG] [eG][eG] [e2G2] |

